X: 125001
T: MY LOVE IS LIKE A RED RED ROSE
R: Waltz.
%R: waltz
B: James Kerr "Merry Melodies" v.1 p.25 s.0 #1
Z: 2017 John Chambers <jc:trillian.mit.edu>
M: 3/4
L: 1/4
K: D
u(A/F/) |\
vD2vD | (E2F) | (d2c) | (B2A) |\
(B2A) | (B2d) | e3 | (def) |\
vD2vD | (E2F) | (d2c) | (B2A) |\
(B2A) | (B2c) | d3- | dz |]
uA |\
(d2f) | (e2d) | (Bd2) | (A2F) |\
vA2vA | (g2f) | f3 | (e2a) |\
(f2a) | (f2d) | (B2d) | (A2F) | A2A | (B2c) | d3- | dz |]
T: Der FREYSCH\"UTZ WALTZ
P: Allegro for Pousette.
M: 3/4
L: 1/8
|: uAvduf |\
(baf)Adf | (baf)Adf | (age)Ace | (gfd)Adf |\
(baf)Adf | (baf)Adf | (age)Ace | d2z2 :|

%%sep 1 1 500
%%sep 1 1 500

